!!!OTL: 1724. Altes Scherzlied.
!!!ODT: 1867
!!!ARE: Europa, Mitteleuropa, Deutschland, Berlin
!!!SCT: E1724
!!!TXL: @@DE
!!!YEM: Copyright 1995, estate of Helmut Schaffrath.
**kern	**text
*ICvox	*
*M3/8	*
*k[b-]	*
*F:	*
=1	=1
!LO:TX:a:t=Bewegt.	!
!LO:TX:a:t=Nach 1867 in Berlin von Soldaten gehört.	!
{16f	Unſ-
16f	-re
16f	Mut-
16f	-ter
16f	hat
16a	die
=2	=2
16cc	Gän-
16cc	-ſe
16cc	ab-
16a	-ge-
8f}	-ruppt,
=3	=3
{16f	na-
16f	-ckend
16f	ſind
16f	ſie
16f	in
16a	der
=4	=4
16cc	Stu-
16cc	-be
16cc	rum
16a	ge-
8f}	-huppt,
=5	=5
{8cc	hei-
8b-	-raſ-
8g	-ſa-
=6	=6
4f	-ſa!
8r}	.
=7||	=7||
!LO:TX:a:t=(Alter Walzer.)	!
{4cc	So
8a	lang,
=8	=8
4cc	ſo
8a}	lang
=9	=9
{8b-	hab
8g	ich
8g	mein
=10	=10
16a	Schä-
16g	-tʒel
16a	nicht
16b-/	ge-
8cc}	-ſehn,
=11	=11
{4cc	ſo
8a	lang,
=12	=12
4cc	ſo
8a}	lang
=13	=13
{16cc	hab
16b-	ichs
8g	nicht
8g	ge-
=14	=14
4f	-ſehn.
8r}	.
=15	=15
{16f	Unſ-
16f	-re
16f	Mut-
16f	-ter
16f	hat
16a	die
=16	=16
16cc	Gän-
16cc	-ſe
16cc	ab-
16a	-ge-
8f}	-ruppt,
=17	=17
{16f	na-
16f	-ckend
16f	ſind
16f	ſie
16f	in
16a	der
=18	=18
16cc	Stu-
16cc	-be
16cc	rum
16a	ge-
8f}	-huppt,
=19	=19
{8cc	hei-
8b-	-raſ-
8g	-ſa-
=20	=20
4f	-ſa!
8r}	.
==	==
!!!AGN: Scherz - Lied
!!!ONB: ESAC (Essen Associative Code) Database: ERK3
!!!AMT: simple triple
!!!AIN: vox
!!!EED: Helmut Schaffrath
!!!EEV: 1.0
!!!GTL: Scherz-, Spiel- und Spottlieder.
!!!URL-scan: https://rosdok.uni-rostock.de/mcrviewer/recordIdentifier/rosdok_ppn745177999/iview2/phys_0522.iview2?x=-449.8344612962892&y=204.74563415138982&scale=0.47549036216460333&rotation=0&layout=singlePageLayout
!!!ENC: Anna Maria Matuszewska
!!!EEV: 2025/08/01
*-	*-
